icons/circle/48/hacknet.svg

<svg xmlns="http://www.w3.org/2000/svg" version="1.1" viewBox="0 0 48 48">
	<defs>
		<linearGradient id="bg" gradientUnits="userSpaceOnUse" x1="0" x2="0" y1="1" y2="47">
			<stop offset="0" stop-color="#363f6a"/>
			<stop offset="1" stop-color="#2f375d"/>
		</linearGradient>
	</defs>
	<path opacity=".05" d="m 36.31 5 c 5.859 4.062 9.688 10.831 9.688 18.5 c 0 12.426 -10.07 22.5 -22.5 22.5 c -7.669 0 -14.438 -3.828 -18.5 -9.688 c 1.037 1.822 2.306 3.499 3.781 4.969 c 4.085 3.712 9.514 5.969 15.469 5.969 c 12.703 0 23 -10.298 23 -23 c 0 -5.954 -2.256 -11.384 -5.969 -15.469 c -1.469 -1.475 -3.147 -2.744 -4.969 -3.781 z m 4.969 3.781 c 3.854 4.113 6.219 9.637 6.219 15.719 c 0 12.703 -10.297 23 -23 23 c -6.081 0 -11.606 -2.364 -15.719 -6.219 c 4.16 4.144 9.883 6.719 16.219 6.719 c 12.703 0 23 -10.298 23 -23 c 0 -6.335 -2.575 -12.06 -6.719 -16.219 z"/>
	<path opacity=".1" d="m 41.28 8.781 c 3.712 4.085 5.969 9.514 5.969 15.469 c 0 12.703 -10.297 23 -23 23 c -5.954 0 -11.384 -2.256 -15.469 -5.969 c 4.113 3.854 9.637 6.219 15.719 6.219 c 12.703 0 23 -10.298 23 -23 c 0 -6.081 -2.364 -11.606 -6.219 -15.719 z"/>
	<path opacity=".2" d="m 31.25 2.375 c 8.615 3.154 14.75 11.417 14.75 21.13 c 0 12.426 -10.07 22.5 -22.5 22.5 c -9.708 0 -17.971 -6.135 -21.12 -14.75 a 23 23 0 0 0 44.875 -7 a 23 23 0 0 0 -16 -21.875 z"/>
	<circle fill="url(#bg)" cx="24" cy="24" r="23"/>
	<path opacity=".1" d="m 40.03 7.531 c 3.712 4.084 5.969 9.514 5.969 15.469 0 12.703 -10.297 23 -23 23 c -5.954 0 -11.384 -2.256 -15.469 -5.969 4.178 4.291 10.01 6.969 16.469 6.969 c 12.703 0 23 -10.298 23 -23 0 -6.462 -2.677 -12.291 -6.969 -16.469 z"/>
	<path d="M 23,9.033370452904235 A 15,15,0,0,1,37.552618543578774,17.571428571428573 1,1,0,0,1,35.745602737768266,18.42857142857143 13,13,0,0,0,25,11.03851860318428 L 25,13.045548849896678 A 11,11,0,1,1,13.045548849896678,25 L 11.03851860318428,25 A 13,13,0,0,0,20.285714285714285,36.458093017498825 1,1,0,0,1,19.714285714285715,38.37472271249865 15,15,0,0,1,9.033370452904235,23 L 13.045548849896678,23 A 11,11,0,0,1,23,13.045548849896678 z M 24,17 A 7,7,0,0,0,24,31 7,7,0,0,0,24,17 M 24,19 A 5,5,0,0,1,24,29 5,5,0,0,1,24,19 M 24,22 A 2,2,0,0,0,24,26 2,2,0,0,0,24,22 M 35.745602737768266,29.57142857142857 A 1,1,0,0,1,37.552618543578774,30.428571428571427 15,15,0,0,1,28.285714285714285,38.37472271249865 1,1,0,0,1,27.714285714285715,36.458093017498825 13,13,0,0,0,35.745602737768266,29.57142857142857 M 37.856406460551014,21 a 1,1,0,0,1,0,2 1,1,0,0,1,0,-2 M 37.856406460551014,25 a 1,1,0,0,1,0,2 1,1,0,0,1,0,-2" opacity=".1" transform="translate(1 1)"/>
	<path d="M 23,9.033370452904235 A 15,15,0,0,1,37.552618543578774,17.571428571428573 1,1,0,0,1,35.745602737768266,18.42857142857143 13,13,0,0,0,25,11.03851860318428 L 25,13.045548849896678 A 11,11,0,1,1,13.045548849896678,25 L 11.03851860318428,25 A 13,13,0,0,0,20.285714285714285,36.458093017498825 1,1,0,0,1,19.714285714285715,38.37472271249865 15,15,0,0,1,9.033370452904235,23 L 13.045548849896678,23 A 11,11,0,0,1,23,13.045548849896678 z M 24,17 A 7,7,0,0,0,24,31 7,7,0,0,0,24,17 M 24,19 A 5,5,0,0,1,24,29 5,5,0,0,1,24,19 M 24,22 A 2,2,0,0,0,24,26 2,2,0,0,0,24,22 M 35.745602737768266,29.57142857142857 A 1,1,0,0,1,37.552618543578774,30.428571428571427 15,15,0,0,1,28.285714285714285,38.37472271249865 1,1,0,0,1,27.714285714285715,36.458093017498825 13,13,0,0,0,35.745602737768266,29.57142857142857 M 37.856406460551014,21 a 1,1,0,0,1,0,2 1,1,0,0,1,0,-2 M 37.856406460551014,25 a 1,1,0,0,1,0,2 1,1,0,0,1,0,-2" fill="#eb2"/>
</svg>

<svg version="1.1" viewBox="0 0 48 48" xmlns="http://www.w3.org/2000/svg">
 <defs>
  <linearGradient id="bg" x2="0" y1="1" y2="47" gradientUnits="userSpaceOnUse">
   <stop stop-color="#363f6a" style="stop-color:#404973" offset="0"/>
   <stop stop-color="#2f375d" style="stop-color:#394167" offset="1"/>
  </linearGradient>
 </defs>
 <path d="m36.3 5c5.86 4.06 9.69 10.8 9.69 18.5 0 12.4-10.1 22.5-22.5 22.5-7.67 0-14.4-3.83-18.5-9.69 1.04 1.82 2.31 3.5 3.78 4.97 4.08 3.71 9.51 5.97 15.5 5.97 12.7 0 23-10.3 23-23 0-5.95-2.26-11.4-5.97-15.5-1.47-1.48-3.15-2.74-4.97-3.78zm4.97 3.78c3.85 4.11 6.22 9.64 6.22 15.7 0 12.7-10.3 23-23 23-6.08 0-11.6-2.36-15.7-6.22 4.16 4.14 9.88 6.72 16.2 6.72 12.7 0 23-10.3 23-23 0-6.34-2.58-12.1-6.72-16.2z" opacity=".05"/>
 <path d="m41.3 8.78c3.71 4.08 5.97 9.51 5.97 15.5 0 12.7-10.3 23-23 23-5.95 0-11.4-2.26-15.5-5.97 4.11 3.85 9.64 6.22 15.7 6.22 12.7 0 23-10.3 23-23 0-6.08-2.36-11.6-6.22-15.7z" opacity=".1"/>
 <path d="m31.2 2.38c8.62 3.15 14.8 11.4 14.8 21.1 0 12.4-10.1 22.5-22.5 22.5-9.71 0-18-6.14-21.1-14.8a23 23 0 0 0 44.9-7 23 23 0 0 0-16-21.9z" opacity=".2"/>
 <circle cx="24" cy="24" r="23" fill="url(#bg)"/>
 <path d="m40 7.53c3.71 4.08 5.97 9.51 5.97 15.5 0 12.7-10.3 23-23 23-5.95 0-11.4-2.26-15.5-5.97 4.18 4.29 10 6.97 16.5 6.97 12.7 0 23-10.3 23-23 0-6.46-2.68-12.3-6.97-16.5z" opacity=".1"/>
 <path transform="translate(1 1)" d="m23 9.03a15 15 0 0 1 14.6 8.54 1 1 0 0 1-1.81 0.857 13 13 0 0 0-10.7-7.39v2.01a11 11 0 1 1-12 12h-2.01a13 13 0 0 0 9.25 11.5 1 1 0 0 1-0.571 1.92 15 15 0 0 1-10.7-15.4h4.01a11 11 0 0 1 9.95-9.95zm1 7.97a7 7 0 0 0 0 14 7 7 0 0 0 0-14m0 2a5 5 0 0 1 0 10 5 5 0 0 1 0-10m0 3a2 2 0 0 0 0 4 2 2 0 0 0 0-4m11.7 7.57a1 1 0 0 1 1.81 0.857 15 15 0 0 1-9.27 7.95 1 1 0 0 1-0.571-1.92 13 13 0 0 0 8.03-6.89m2.11-8.57a1 1 0 0 1 0 2 1 1 0 0 1 0-2m0 4a1 1 0 0 1 0 2 1 1 0 0 1 0-2" opacity=".1"/>
 <path d="m23 9.03a15 15 0 0 1 14.6 8.54 1 1 0 0 1-1.81 0.857 13 13 0 0 0-10.7-7.39v2.01a11 11 0 1 1-12 12h-2.01a13 13 0 0 0 9.25 11.5 1 1 0 0 1-0.571 1.92 15 15 0 0 1-10.7-15.4h4.01a11 11 0 0 1 9.95-9.95zm1 7.97a7 7 0 0 0 0 14 7 7 0 0 0 0-14m0 2a5 5 0 0 1 0 10 5 5 0 0 1 0-10m0 3a2 2 0 0 0 0 4 2 2 0 0 0 0-4m11.7 7.57a1 1 0 0 1 1.81 0.857 15 15 0 0 1-9.27 7.95 1 1 0 0 1-0.571-1.92 13 13 0 0 0 8.03-6.89m2.11-8.57a1 1 0 0 1 0 2 1 1 0 0 1 0-2m0 4a1 1 0 0 1 0 2 1 1 0 0 1 0-2" fill="#eb2" style="fill:#dbbb5c"/>
</svg>
